polaris-icons/icons/CreditCardReaderTapIcon.svg

<svg xmlns="http://www.w3.org/2000/svg" viewBox="0 0 20 20"><path d="M18 9.75C18 6.02208 14.9779 3 11.25 3H11C10.5858 3 10.25 3.33579 10.25 3.75C10.25 4.16421 10.5858 4.5 11 4.5H11.25C14.1495 4.5 16.5 6.85051 16.5 9.75V10C16.5 10.4142 16.8358 10.75 17.25 10.75C17.6642 10.75 18 10.4142 18 10V9.75Z"/>
<path d="M11.5 5.75C13.5711 5.75 15.25 7.42893 15.25 9.5V9.75C15.25 10.1642 14.9142 10.5 14.5 10.5C14.0858 10.5 13.75 10.1642 13.75 9.75V9.5C13.75 8.25736 12.7426 7.25 11.5 7.25H11.25C10.8358 7.25 10.5 6.91421 10.5 6.5C10.5 6.08579 10.8358 5.75 11.25 5.75H11.5Z"/>
<path fill-rule="evenodd" d="M4.75 8C3.50736 8 2.5 9.00736 2.5 10.25V14.25C2.5 15.4926 3.50736 16.5 4.75 16.5H10.75C11.9926 16.5 13 15.4926 13 14.25V10.25C13 9.00736 11.9926 8 10.75 8H4.75ZM4 10.25C4 9.83579 4.33579 9.5 4.75 9.5H10.75C11.1642 9.5 11.5 9.83579 11.5 10.25V10.5H4V10.25ZM4 12.5V14.25C4 14.6642 4.33579 15 4.75 15H10.75C11.1642 15 11.5 14.6642 11.5 14.25V12.5H4Z"/></svg>

<svg xmlns="http://www.w3.org/2000/svg" viewBox="0 0 20 20"><path d="M18 9.75c0-3.728-3.022-6.75-6.75-6.75h-.25c-.414 0-.75.336-.75.75s.336.75.75.75h.25c2.9 0 5.25 2.35 5.25 5.25v.25c0 .414.336.75.75.75s.75-.336.75-.75v-.25Z"/><path d="M11.5 5.75c2.071 0 3.75 1.679 3.75 3.75v.25c0 .414-.336.75-.75.75s-.75-.336-.75-.75v-.25c0-1.243-1.007-2.25-2.25-2.25h-.25c-.414 0-.75-.336-.75-.75s.336-.75.75-.75h.25Z"/><path fill-rule="evenodd" d="M4.75 8c-1.243 0-2.25 1.007-2.25 2.25v4c0 1.243 1.007 2.25 2.25 2.25h6c1.243 0 2.25-1.007 2.25-2.25v-4c0-1.243-1.007-2.25-2.25-2.25h-6Zm-.75 2.25c0-.414.336-.75.75-.75h6c.414 0 .75.336.75.75v.25h-7.5v-.25Zm0 2.25v1.75c0 .414.336.75.75.75h6c.414 0 .75-.336.75-.75v-1.75h-7.5Z"/></svg>
